X:1
T:Queste Donne
T:Queste Donne
T:Giovanni Ghizzolo
C:Giovanni Ghizzolo
%%score [ 1 2 ] { 3 | 4 }
L:1/8
Q:1/4=120
M:4/4
K:F
V:1 treble nm="Soprano" snm="S"
V:2 bass nm="Bass" snm="B"
V:3 treble nm="MusicXML Part"
V:4 bass 
V:1
"^Source: Madrigale et Arie---Libro primo---Venetia---A.Raverij---1609.\nEditor: André Vierendeels (02/12/09)\nContinuo: André Vierendeels." A2 B2 c4- | %1
w: Ques- te Don-|
w: Co- s'in Ci-|
w: Poi che'a- lei|
 c2 c2 B2 G2 | A4 A4 | G2 G2 G4- | G2 G2 A3 G | G4 G4 :: B2 c2 d4- | d2 d2 c2 B2 | A4 A4 | %9
w: * ne'o Don- ne|bel- le|dan- zan qui|_ per far- vi'ho-|no- re|Co- s'in ciel|_ dan- zan le|stel- le|
w: * pro Ci- the-|re- a|gia si fe|_ con gio- ia'e|can to|Quan- do vin-|* to'og- n'al- tra|De- a|
w: _ si- mi- li|sie- te|me- ri- ta|_ te'u- gua- li'ho-|no- ri.|quin- ci'a voi|_ ques- te'al- me|lie- te|
 G2 G2 G4- | G2 A2 A3 G | G4 G4 :: D2 D2 E4- | E2 G2 A3 G | G8 | G8 |] %16
w: quan- do nas-|* ce'un no- vo'ar-|do- re,|quan- do nas-|* ce'un no- vo'ar-|do-|re.|
w: di bel- lez-|* za'heb- be il|van- to,|di bel- lez-|* za'heb- be il|van-|to.|
w: fan- no dan-|* z'e por- tan|fio- ri,|fan- no dan-|* z'e por- tan|fio-|ri.|
V:2
 F,2 F,2 F,4- | F,2 F,2 B,,2 C,2 | F,4 F,4 | _E,2 D,2 C,4 | =B,,4 C,2 D,2 | G,,4 G,,4 :: %6
w: Ques- te Don-|* ne'o Don- ne|bel- le|dan- zan qui|per far- vi'ho-|no- re,|
w: Co- s'in Ci-|* pro Ci- the-|re- a|gia si fe|con gio- ia'e|can- to|
w: Poi che'a- lei|_ si- mi- li|sie- te|me- ri- ta-|te'un gua- li'ho-|no- ri,|
 G,2 A,2 B,4- | B,2 B,2 A,2 G,2 | F,4 F,4 | _E,2 D,2 C,4- | C,2 C,2 D,3 D, | G,,4 G,,4 :: %12
w: Co- s'in ciel|_ dan- zan le|stel- le|quan- do nas-|* ce'un no- vo'ar-|do- re,|
w: Quan- do vin-|* to'og- n'al- tra|De- a|di bel- lez|_ za'heb- be il|van to,|
w: quin- ci'a voi|_ ques- te'al- me|lie- te|fan no dan-|* z'e por- tan|fio- ri,|
 G,,2 G,,2 C,4- | C,2 =B,,2 D,3 G,, | G,,8 | G,,8 |] %16
w: quan- do nas-|* ce'un no- vo'ar-|do-|re.|
w: di bel- lez-|* za'heb- be il|van-|to.|
w: fan- no dan-|* z'e por- ta|fio-|ri.|
V:3
 [FAc]8 | [FAc]4 [DF]2 [EGc]2 | [FAc]8 | [GB]2 G2 [_EG]4 | [DG]4 A2 ^F2 | [DG=B]8 :: %6
 [DB]2 [EA]2 [FB]4 | [Bd]4 [Fc]2 [Gd]2 | [FAc]8 | B4 G4 | %10
 G4 G2 ^F2"^Note: original keys: Ut 1st, Fa 4rth\n" | [DG=B]8 :: [DG]2 [DGB]2 [EGc]4 | %13
 G2 D2 G2 ^F2 | [DG=B]8 | [DG=B]8 |] %16
V:4
 F,2 F,2 F,4- | F,2 F,2 B,,2 C,2 | F,4 F,4 | _E,2 D,2 C,4 | =B,,4 C,2 D,2 | G,,4 G,,4 :: %6
 G,2 A,2 B,4- | B,2 B,2 A,2 G,2 | F,4 F,4 | _E,2 D,2 C,4- | C,2 C,2 D,3 D, | %11
"^Dedication: Al Illustre & molto Rever.Sig.Camillo Cattaneo Canonico della Catedrale di Novara" G,,4 G,,4 :: %12
 G,,2 G,,2 C,4- | C,2 =B,,2 D,3 G,, | G,,8 | G,,8 |] %16

